icons/flutter-fill.svg

<svg xmlns="http://www.w3.org/2000/svg" width="24" height="24" fill="none"><g clip-path="url(#a)"><g><path fill="#121212" d="M13.503 2.00098L3.50299 12.001L6.58599 15.084L19.666 2.00098H13.503ZM13.497 11.199L8.12199 16.62L13.494 22H19.683L14.296 16.6L19.685 11.2H13.497V11.199Z"/></g></g><defs><clipPath id="a"><rect width="24" height="24" fill="white"/></clipPath></defs></svg>

<svg width="24" height="24" fill="none" xmlns="http://www.w3.org/2000/svg"><g clip-path="url(#a)"><path d="m13.503 2.001-10 10 3.083 3.083 13.08-13.083h-6.163Zm-.006 9.198L8.122 16.62 13.494 22h6.189l-5.387-5.4 5.389-5.4h-6.188v-.001Z" /></g><defs><clipPath id="a"><path fill="#fff" d="M0 0h24v24H0z"/></clipPath></defs></svg>
